public/static/img/assets/cash.svg

<svg width="16" height="16" viewBox="0 0 16 16" fill="none" xmlns="http://www.w3.org/2000/svg">
<g clip-path="url(#clip0_335_5217)">
<path d="M7.93926 1.45412C11.5764 1.45412 14.5361 4.41386 14.5361 8.05095C14.5361 11.688 11.5764 14.6478 7.93926 14.6478C4.30217 14.6478 1.34242 11.6881 1.34242 8.05095C1.34242 4.41385 4.30217 1.45412 7.93926 1.45412ZM7.93926 0.511719C3.77575 0.511719 0.400024 3.88745 0.400024 8.05097C0.400024 12.2145 3.77575 15.5902 7.93926 15.5902C12.1028 15.5902 15.4785 12.2145 15.4785 8.05097C15.4785 3.88745 12.1028 0.511719 7.93926 0.511719ZM7.93926 2.39653C4.8157 2.39653 2.28484 4.92741 2.28484 8.05097C2.28484 11.1736 4.8157 13.7054 7.93926 13.7054C11.0619 13.7054 13.5937 11.1736 13.5937 8.05097C13.5937 4.92741 11.0619 2.39653 7.93926 2.39653ZM9.99526 10.9619C9.62436 11.3779 9.08875 11.6227 8.38838 11.6964V12.763H7.49564V11.7019C6.32775 11.5822 5.6053 10.903 5.32644 9.66612L6.70692 9.30628C6.83487 10.0839 7.25822 10.4723 7.97697 10.4723C8.31287 10.4723 8.56138 10.3895 8.71969 10.2229C8.87799 10.0563 8.95713 9.8557 8.95713 9.6201C8.95713 9.37623 8.87799 9.19119 8.71969 9.06604C8.56138 8.93999 8.20887 8.78074 7.66316 8.58748C7.17263 8.41726 6.78882 8.24972 6.51273 8.08225C6.23663 7.91658 6.01207 7.68375 5.83998 7.38462C5.66788 7.08457 5.58137 6.73486 5.58137 6.33729C5.58137 5.81545 5.73598 5.34518 6.04338 4.92735C6.35078 4.51045 6.83486 4.25551 7.49566 4.16255V3.33892H8.38839V4.1626C9.38601 4.28226 10.0321 4.84641 10.3256 5.85598L9.0961 6.36031C8.8559 5.66823 8.48591 5.3222 7.98345 5.3222C7.73124 5.3222 7.52878 5.39951 7.37695 5.55412C7.22415 5.70873 7.14778 5.89647 7.14778 6.11644C7.14778 6.341 7.22142 6.51311 7.36866 6.63367C7.515 6.75335 7.83066 6.9015 8.3129 7.07911C8.843 7.27241 9.25898 7.45553 9.55993 7.62762C9.86178 7.79972 10.102 8.0381 10.2824 8.34086C10.4618 8.64458 10.552 8.99892 10.552 9.40474C10.552 10.0278 10.3661 10.5469 9.99526 10.9619Z" fill="#171717"/>
</g>
<defs>
<clipPath id="clip0_335_5217">
<rect width="16" height="16" fill="white"/>
</clipPath>
</defs>
</svg>

<svg width="16" height="16" fill="none" xmlns="http://www.w3.org/2000/svg"><g clip-path="url(#a)"><path d="M7.94 1.454a6.605 6.605 0 0 1 6.596 6.597 6.605 6.605 0 0 1-6.597 6.597A6.605 6.605 0 0 1 1.342 8.05 6.605 6.605 0 0 1 7.94 1.454Zm0-.942a7.54 7.54 0 1 0 0 15.079 7.54 7.54 0 0 0 0-15.08Zm0 1.885a5.654 5.654 0 1 0 0 11.31 5.654 5.654 0 0 0 0-11.31Zm2.055 8.565c-.37.416-.906.66-1.607.734v1.067h-.892v-1.061c-1.168-.12-1.89-.799-2.17-2.036l1.38-.36c.129.778.552 1.166 1.271 1.166.336 0 .584-.082.743-.25a.843.843 0 0 0 .237-.602c0-.244-.079-.429-.237-.554-.159-.126-.511-.285-1.057-.479-.49-.17-.874-.337-1.15-.505a1.9 1.9 0 0 1-.673-.697 2.07 2.07 0 0 1-.259-1.048c0-.522.155-.992.462-1.41.308-.417.792-.671 1.453-.764v-.824h.892v.824c.998.12 1.644.683 1.938 1.693l-1.23.504c-.24-.692-.61-1.038-1.113-1.038-.252 0-.454.078-.606.232a.77.77 0 0 0-.23.562c0 .225.074.397.222.518.146.12.462.268.944.445.53.193.946.377 1.247.549.302.172.542.41.722.713.18.304.27.658.27 1.064 0 .623-.186 1.142-.557 1.557Z" fill="#171717"/></g><defs><clipPath id="a"><path fill="#fff" d="M0 0h16v16H0z"/></clipPath></defs></svg>
